!!!OTL: We Shall Overcome
!!!COM: Seeger, Peter, et al
!!!ODT: unknown
!!!YOR: Gospel's Greatest
!!!YOY: 1960
!!!AST: Spiritual
!!!YEC: Brian Luke, 2001
**kern	**harm
*k[]	*k[]
*M4/4	*M4/4
*C:	*C:
*>A	*>A
=1	=1
4g	I
4g	.
4a	IV
4a	.
=2	=2
4.g	I
8f	.
2e	.
=3	=3
4g	.
4g	.
4a	IV
4a	.
=4	=4
4.g	I
8f	.
2e	.
=5	=5
4g	.
4g	.
4a	IV
4b	V
=6	=6
2cc	vi
2dd	V7/V
=7	=7
[2b	V
8b]	V7/V
8a	.
8b	.
8a	.
=8	=8
2g	V
*>B	*>B
4a	ii7
4b	V7
=9	=9
2cc	I
4cc	IV
4a	.
=10	=10
1g	I
=11	=11
2a	IV
4g	V7
4f	.
=12	=12
1e	vi
=13	=13
4g	I
4g	.
4c	IV
4f	.
=14	=14
2e	Ic
2d	V7
=15	=15
[1c	I;
.	IVc
=16	=16
1c]	I;
*-	*-
